assets/icons/qvision/no_transfer.svg

<svg width="24" height="24" viewBox="0 0 24 24" fill="none" xmlns="http://www.w3.org/2000/svg">
<g clip-path="url(#clip0_147_5552)">
<path d="M21.1899 21.19L2.80989 2.81L1.38989 4.22L3.99989 6.83V16C3.99989 16.88 4.38989 17.67 4.99989 18.22V20C4.99989 20.55 5.44989 21 5.99989 21H6.99989C7.54989 21 7.99989 20.55 7.99989 20V19H15.9999V20C15.9999 20.55 16.4499 21 16.9999 21H17.9999C18.0499 21 18.0899 20.98 18.1399 20.97L19.7799 22.61L21.1899 21.19ZM7.49989 17C6.66989 17 5.99989 16.33 5.99989 15.5C5.99989 14.67 6.66989 14 7.49989 14C8.32989 14 8.99989 14.67 8.99989 15.5C8.99989 16.33 8.32989 17 7.49989 17ZM5.99989 11V8.83L8.16989 11H5.99989ZM8.82989 6L5.77989 2.95C7.23989 2.16 9.47989 2 11.9999 2C16.4199 2 19.9999 2.5 19.9999 6V16C19.9999 16.35 19.9199 16.67 19.8099 16.98L13.8299 11H17.9999V6H8.82989Z" fill="#323232"/>
</g>
<defs>
<clipPath id="clip0_147_5552">
<rect width="24" height="24" fill="white"/>
</clipPath>
</defs>
</svg>

<svg xmlns="http://www.w3.org/2000/svg" enable-background="new 0 0 24 24" height="24" viewBox="0 0 24 24" width="24"><rect fill="none" height="24" width="24"/><path d="M21.19,21.19L2.81,2.81L1.39,4.22L4,6.83V16c0,0.88,0.39,1.67,1,2.22V20c0,0.55,0.45,1,1,1h1c0.55,0,1-0.45,1-1v-1h8v1 c0,0.55,0.45,1,1,1h1c0.05,0,0.09-0.02,0.14-0.03l1.64,1.64L21.19,21.19z M7.5,17C6.67,17,6,16.33,6,15.5C6,14.67,6.67,14,7.5,14 S9,14.67,9,15.5C9,16.33,8.33,17,7.5,17z M6,11V8.83L8.17,11H6z M8.83,6L5.78,2.95C7.24,2.16,9.48,2,12,2c4.42,0,8,0.5,8,4v10 c0,0.35-0.08,0.67-0.19,0.98L13.83,11H18V6H8.83z"/></svg>
